!!!OTL: "Schlemmhimmel" O WIE GEHTS IM HIMMEL ZU
!!!ARE: Europa, Mitteleuropa, Deutschland, Westfalen
!!!SCT: Z1322
!!!YEM: Copyright 1995, estate of Helmut Schaffrath.
**kern
*ICvox
*Ivox
*M2/4
*k[]
*C:
{8G
8c
8c
8c
=1
8B
8d
8d
8r}
=2
{8e
8c
8f
8d
=3
8c
8B
8c
8r}
=4
{8G
8c
8c
8c
=5
8B
8d
4d}
=6
{8e
8c
8f
8d
=7
8c
8B
4c}
=8
{8c
8e
8d
8e
=9
8f
8e
8d
8r}
=10
{8c
8e
8d
8e
=11
8f
8e
4d}
=12
{8G
8c
8c
8c
=13
8B
8d
4d}
=14
{8e
8c
8f
8d
=15
8c
8B
4c}
==
!!!AGN: Zech -, Schalks - Lied
!!!ONB: ESAC (Essen Associative Code) Database: ZUCCAL
!!!AMT: simple duple
!!!AIN: vox
!!!EED: Helmut Schaffrath
!!!EEV: 1.0
*-
